journy/img/media/travel-leisure.svg

<svg fill="none" height="27" viewBox="0 0 85 27" width="85" xmlns="http://www.w3.org/2000/svg"><g clip-rule="evenodd" fill="#122842" fill-rule="evenodd"><path d="m72.0264 6.54791h5.8109v5.74519h1.0629v-5.74519h5.8364v-.96368h-5.8364v-5.58423h-1.0629v5.58423h-5.8109z"/><path d="m51.39 26.7025c-3.3363 0-5.5775-1.9341-5.5775-4.8124v-7.7845h2.9474v7.7845c0 1.6591 1.4163 2.2479 2.6301 2.2479 1.6451 0 2.6671-.8604 2.6671-2.2479v-7.7845h2.9473v7.7845c0 2.9239-2.2036 4.8124-5.6144 4.8124z"/><path d="m38.2577 26.7024c-2.5034 0-4.6789-.7812-6.6499-2.3894l-.1254-.1019 1.6813-2.034.1234.0986c1.1474.918 2.7528 1.9716 5.0075 1.9716 1.1796 0 2.557-.4031 2.557-1.5364 0-.9717-1.0059-1.2386-2.8622-1.3902-2.3163-.1455-5.8203-.3661-5.8203-3.6441 0-2.9025 2.6268-3.9359 5.0853-3.9359 2.4243 0 4.5803.8792 5.6902 1.633l.1455.0986-1.704 2.0782-.1234-.0912c-.3923-.2924-1.8482-1.2453-4.0814-1.2453-1.0066 0-2.0829.3413-2.0829 1.2989 0 .8591 1.3345.9664 2.7482 1.0797l.224.0188c2.1339.1435 5.7103.3836 5.7103 3.8447 0 2.6979-2.0132 4.2463-5.5232 4.2463z"/><path d="m84.4506 26.3377h-10.6635v-12.2321h10.2444v2.5825h-7.3151v1.9958h4.3959v2.5644h-4.3959v2.5249h7.7342z"/><path d="m26.5195 26.3378h2.9293v-12.2321h-2.9293z"/><path d="m24.0229 26.3375h-10.6635v-12.232h10.2443v2.5825h-7.3144v1.9958h4.3952v2.5644h-4.3952v2.5249h7.7336z"/><path d="m11.6536 26.3377h-9.93387v-12.2321h2.92993v9.6676h7.00394z"/><path d="m68.9573 21.4522c1.4908-.7108 2.3405-1.9515 2.3405-3.4282 0-.957-.3648-1.8703-1.0287-2.5738-.8645-.9047-2.0716-1.3446-3.6918-1.3446h-6.7638v12.2321h2.9292v-4.3772h3.284l2.4076 4.3772h3.3651zm-2.1064-2.0206h-4.1082v-2.7985h3.9258c.4587 0 .9335.0557 1.3091.4648.2441.2434.3728.564.3728.9261 0 .8027-.6444 1.4076-1.4995 1.4076z"/><path d="m74.4894 12.2345h-9.9191v-12.2132598h2.9259v9.6521998h6.9932z"/><path d="m62.5634 12.2345h-10.6474v-12.2132598h10.2283v2.5791998h-7.3031v1.99173h4.3892v2.56109h-4.3892v2.52018h7.7222z"/><path d="m45.0925 12.2345h-2.4632l-5.6674-12.2132598h3.3075l3.6461 8.5128198 3.6455-8.5128198h3.1982z"/><path d="m7.24133 12.2349h-2.92523v-9.6341h-4.3161v-2.5791936h11.5393v2.5791936h-4.29797z"/><path d="m33.8048.0212402h-2.445l-5.6674 12.2132598h3.1076l1.0744-2.51345h5.2884l1.0932 2.51345h3.2162zm-2.9004 7.3211298 1.6142-3.76686 1.6142 3.76686z"/><path d="m22.1151 7.3567c1.4881-.71018 2.3371-1.94814 2.3371-3.42283 0-.95563-.3648-1.86834-1.028-2.57048-.8618-.903322-2.0675-1.3419056-3.6857-1.3419056h-6.7531v12.2126156h2.9252v-4.37041h3.278l2.4041 4.37041h3.3605zm-2.103-2.01789h-4.1015v-2.79312h3.9191c.4573 0 .9315.05499 1.307.4634.2434.24276.3722.56264.3722.92478 0 .80072-.6438 1.40494-1.4968 1.40494z"/></g></svg>

<svg width="85" height="27" viewBox="0 0 85 27" fill="none" xmlns="http://www.w3.org/2000/svg">
<path fill-rule="evenodd" clip-rule="evenodd" d="M72.0264 6.54791H77.8373V12.2931H78.9002V6.54791H84.7366V5.58423H78.9002V0H77.8373V5.58423H72.0264V6.54791Z" fill="#122842"/>
<path fill-rule="evenodd" clip-rule="evenodd" d="M51.39 26.7025C48.0537 26.7025 45.8125 24.7684 45.8125 21.8901V14.1056H48.7599V21.8901C48.7599 23.5492 50.1762 24.138 51.39 24.138C53.0351 24.138 54.0571 23.2776 54.0571 21.8901V14.1056H57.0044V21.8901C57.0044 24.814 54.8008 26.7025 51.39 26.7025Z" fill="#122842"/>
<path fill-rule="evenodd" clip-rule="evenodd" d="M38.2577 26.7024C35.7543 26.7024 33.5788 25.9212 31.6078 24.313L31.4824 24.2111L33.1637 22.1771L33.2871 22.2757C34.4345 23.1937 36.0399 24.2473 38.2946 24.2473C39.4742 24.2473 40.8516 23.8442 40.8516 22.7109C40.8516 21.7392 39.8457 21.4723 37.9894 21.3207C35.6731 21.1752 32.1691 20.9546 32.1691 17.6766C32.1691 14.7741 34.7959 13.7407 37.2544 13.7407C39.6787 13.7407 41.8347 14.6199 42.9446 15.3737L43.0901 15.4723L41.3861 17.5505L41.2627 17.4593C40.8704 17.1669 39.4145 16.214 37.1813 16.214C36.1747 16.214 35.0984 16.5553 35.0984 17.5129C35.0984 18.372 36.4329 18.4793 37.8466 18.5926L38.0706 18.6114C40.2045 18.7549 43.7809 18.995 43.7809 22.4561C43.7809 25.154 41.7677 26.7024 38.2577 26.7024Z" fill="#122842"/>
<path fill-rule="evenodd" clip-rule="evenodd" d="M84.4506 26.3377H73.7871V14.1056H84.0315V16.6881H76.7164V18.6839H81.1123V21.2483H76.7164V23.7732H84.4506V26.3377Z" fill="#122842"/>
<path fill-rule="evenodd" clip-rule="evenodd" d="M26.5195 26.3378H29.4488V14.1057H26.5195V26.3378Z" fill="#122842"/>
<path fill-rule="evenodd" clip-rule="evenodd" d="M24.0229 26.3375H13.3594V14.1055H23.6037V16.688H16.2893V18.6838H20.6845V21.2482H16.2893V23.7731H24.0229V26.3375Z" fill="#122842"/>
<path fill-rule="evenodd" clip-rule="evenodd" d="M11.6536 26.3377H1.71973V14.1056H4.64966V23.7732H11.6536V26.3377Z" fill="#122842"/>
<path fill-rule="evenodd" clip-rule="evenodd" d="M68.9573 21.4522C70.4481 20.7414 71.2978 19.5007 71.2978 18.024C71.2978 17.067 70.933 16.1537 70.2691 15.4502C69.4046 14.5455 68.1975 14.1056 66.5773 14.1056H59.8135V26.3377H62.7427V21.9605H66.0267L68.4343 26.3377H71.7994L68.9573 21.4522ZM66.8509 19.4316H62.7427V16.6331H66.6685C67.1272 16.6331 67.602 16.6888 67.9776 17.0979C68.2217 17.3413 68.3504 17.6619 68.3504 18.024C68.3504 18.8267 67.706 19.4316 66.8509 19.4316Z" fill="#122842"/>
<path fill-rule="evenodd" clip-rule="evenodd" d="M74.4894 12.2345H64.5703V0.0212402H67.4962V9.67344H74.4894V12.2345Z" fill="#122842"/>
<path fill-rule="evenodd" clip-rule="evenodd" d="M62.5634 12.2345H51.916V0.0212402H62.1443V2.60044H54.8412V4.59217H59.2304V7.15326H54.8412V9.67344H62.5634V12.2345Z" fill="#122842"/>
<path fill-rule="evenodd" clip-rule="evenodd" d="M45.0925 12.2345H42.6293L36.9619 0.0212402H40.2694L43.9155 8.53406L47.561 0.0212402H50.7592L45.0925 12.2345Z" fill="#122842"/>
<path fill-rule="evenodd" clip-rule="evenodd" d="M7.24133 12.2349H4.3161V2.6008H0V0.0216064H11.5393V2.6008H7.24133V12.2349Z" fill="#122842"/>
<path fill-rule="evenodd" clip-rule="evenodd" d="M33.8048 0.0212402H31.3598L25.6924 12.2345H28.8L29.8744 9.72105H35.1628L36.256 12.2345H39.4722L33.8048 0.0212402ZM30.9044 7.34237L32.5186 3.57551L34.1328 7.34237H30.9044Z" fill="#122842"/>
<path fill-rule="evenodd" clip-rule="evenodd" d="M22.1151 7.3567C23.6032 6.64652 24.4522 5.40856 24.4522 3.93387C24.4522 2.97824 24.0874 2.06553 23.4242 1.36339C22.5624 0.460068 21.3567 0.0214844 19.7385 0.0214844H12.9854V12.2341H15.9106V7.86369H19.1886L21.5927 12.2341H24.9532L22.1151 7.3567ZM20.0121 5.33881H15.9106V2.54569H19.8297C20.287 2.54569 20.7612 2.60068 21.1367 3.00909C21.3801 3.25185 21.5089 3.57173 21.5089 3.93387C21.5089 4.73459 20.8651 5.33881 20.0121 5.33881Z" fill="#122842"/>
</svg>
